X:29
M:2/4
L:1/8
K:Bb
f3g | f2 ed | edcB | F2B2 | B2 :: d/c/ | BABG | d2 Bc | dcde | f2 de | f3g |
fdcB | AB c2 | c2 ga | bagf | b2 ag | fdcB | G2 FE | DF B2 | Gc e2 | .c2 .B2 | .B2 :|

